img/instagram.svg

<svg width="48" height="48" viewBox="0 0 48 48" fill="none" xmlns="http://www.w3.org/2000/svg">
<path d="M0 24C0 10.7452 10.7452 0 24 0C37.2548 0 48 10.7452 48 24C48 37.2548 37.2548 48 24 48C10.7452 48 0 37.2548 0 24Z" fill="#F6F6F8"/>
<path d="M24 12C20.74 12 20.333 12.015 19.053 12.072C17.775 12.132 16.905 12.333 16.14 12.63C15.351 12.936 14.681 13.347 14.014 14.014C13.347 14.681 12.935 15.35 12.63 16.14C12.333 16.905 12.131 17.775 12.072 19.053C12.012 20.333 12 20.74 12 24C12 27.26 12.015 27.6671 12.072 28.9471C12.132 30.224 12.333 31.0951 12.63 31.86C12.936 32.648 13.347 33.3191 14.014 33.986C14.681 34.652 15.35 35.0651 16.14 35.37C16.906 35.666 17.776 35.8689 19.053 35.928C20.333 35.988 20.74 36 24 36C27.26 36 27.6671 35.9849 28.9471 35.928C30.224 35.868 31.0951 35.666 31.86 35.37C32.648 35.064 33.3191 34.652 33.986 33.986C34.652 33.3191 35.0651 32.6511 35.37 31.86C35.666 31.0951 35.8689 30.224 35.928 28.9471C35.988 27.6671 36 27.26 36 24C36 20.74 35.9849 20.333 35.928 19.053C35.868 17.776 35.666 16.904 35.37 16.14C35.064 15.351 34.652 14.681 33.986 14.014C33.3191 13.347 32.6511 12.935 31.86 12.63C31.0951 12.333 30.224 12.131 28.9471 12.072C27.6671 12.012 27.26 12 24 12ZM24 14.16C27.2031 14.16 27.5851 14.176 28.85 14.231C30.02 14.286 30.6549 14.48 31.0769 14.646C31.6389 14.863 32.0369 15.123 32.4589 15.542C32.878 15.962 33.138 16.361 33.3549 16.923C33.5189 17.345 33.7149 17.98 33.768 19.15C33.8249 20.416 33.838 20.796 33.838 24C33.838 27.204 33.8229 27.5851 33.764 28.85C33.7029 30.02 33.508 30.6549 33.3431 31.0769C33.1191 31.6389 32.864 32.0369 32.444 32.4589C32.0251 32.878 31.62 33.138 31.064 33.3549C30.644 33.5189 29.9991 33.7149 28.8291 33.768C27.5551 33.8249 27.18 33.838 23.97 33.838C20.759 33.838 20.384 33.8229 19.111 33.764C17.94 33.7029 17.295 33.508 16.875 33.3431C16.306 33.1191 15.915 32.864 15.496 32.444C15.075 32.0251 14.806 31.62 14.596 31.064C14.431 30.644 14.237 29.9991 14.176 28.8291C14.131 27.5691 14.115 27.18 14.115 23.985C14.115 20.789 14.131 20.399 14.176 19.124C14.237 17.954 14.431 17.31 14.596 16.89C14.806 16.32 15.075 15.93 15.496 15.509C15.915 15.09 16.306 14.82 16.875 14.611C17.295 14.445 17.926 14.25 19.096 14.19C20.371 14.145 20.746 14.13 23.955 14.13L24 14.16ZM24 17.838C20.595 17.838 17.838 20.598 17.838 24C17.838 27.4049 20.598 30.162 24 30.162C27.4049 30.162 30.162 27.402 30.162 24C30.162 20.595 27.402 17.838 24 17.838ZM24 28C21.79 28 20 26.21 20 24C20 21.79 21.79 20 24 20C26.21 20 28 21.79 28 24C28 26.21 26.21 28 24 28ZM31.846 17.595C31.846 18.39 31.2 19.035 30.406 19.035C29.6111 19.035 28.966 18.389 28.966 17.595C28.966 16.801 29.612 16.156 30.406 16.156C31.1991 16.155 31.846 16.801 31.846 17.595Z" fill="#1C1C33"/>
</svg>

<svg width="48" height="48" fill="none" xmlns="http://www.w3.org/2000/svg"><path d="M0 24C0 10.745 10.745 0 24 0s24 10.745 24 24-10.745 24-24 24S0 37.255 0 24z" fill="#F6F6F8"/><path d="M24 12c-3.26 0-3.667.015-4.947.072-1.278.06-2.148.261-2.913.558a5.876 5.876 0 00-2.126 1.384 5.855 5.855 0 00-1.384 2.126c-.297.765-.499 1.635-.558 2.913C12.012 20.333 12 20.74 12 24s.015 3.667.072 4.947c.06 1.277.261 2.148.558 2.913.306.788.717 1.46 1.384 2.126a5.867 5.867 0 002.126 1.384c.766.296 1.636.499 2.913.558 1.28.06 1.687.072 4.947.072s3.667-.015 4.947-.072c1.277-.06 2.148-.262 2.913-.558a5.897 5.897 0 002.126-1.384 5.857 5.857 0 001.384-2.126c.296-.765.499-1.636.558-2.913.06-1.28.072-1.687.072-4.947s-.015-3.667-.072-4.947c-.06-1.277-.262-2.149-.558-2.913a5.89 5.89 0 00-1.384-2.126 5.845 5.845 0 00-2.126-1.384c-.765-.297-1.636-.499-2.913-.558C27.667 12.012 27.26 12 24 12zm0 2.16c3.203 0 3.585.016 4.85.071 1.17.055 1.805.249 2.227.415.562.217.96.477 1.382.896.419.42.679.819.896 1.381.164.422.36 1.057.413 2.227.057 1.266.07 1.646.07 4.85 0 3.204-.015 3.585-.074 4.85-.061 1.17-.256 1.805-.42 2.227a3.81 3.81 0 01-.9 1.382 3.74 3.74 0 01-1.38.896c-.42.164-1.065.36-2.235.413-1.274.057-1.649.07-4.859.07-3.211 0-3.586-.015-4.859-.074-1.171-.061-1.816-.256-2.236-.42a3.716 3.716 0 01-1.379-.9 3.643 3.643 0 01-.9-1.38c-.165-.42-.359-1.065-.42-2.235-.045-1.26-.061-1.649-.061-4.844 0-3.196.016-3.586.061-4.861.061-1.17.255-1.814.42-2.234.21-.57.479-.96.9-1.381.419-.419.81-.689 1.379-.898.42-.166 1.051-.361 2.221-.421 1.275-.045 1.65-.06 4.859-.06l.045.03zm0 3.678a6.162 6.162 0 100 12.324 6.162 6.162 0 100-12.324zM24 28c-2.21 0-4-1.79-4-4s1.79-4 4-4 4 1.79 4 4-1.79 4-4 4zm7.846-10.405a1.441 1.441 0 01-2.88 0 1.44 1.44 0 012.88 0z" fill="#1C1C33"/></svg>
